poi/svg/2606.svg

<?xml version="1.0" encoding="UTF-8" standalone="no"?>
<svg
   xmlns:dc="http://purl.org/dc/elements/1.1/"
   xmlns:cc="http://creativecommons.org/ns#"
   xmlns:rdf="http://www.w3.org/1999/02/22-rdf-syntax-ns#"
   xmlns:svg="http://www.w3.org/2000/svg"
   xmlns="http://www.w3.org/2000/svg"
   xmlns:sodipodi="http://sodipodi.sourceforge.net/DTD/sodipodi-0.dtd"
   xmlns:inkscape="http://www.inkscape.org/namespaces/inkscape"
   inkscape:version="1.0 (4035a4fb49, 2020-05-01)"
   sodipodi:docname="2606.svg"
   id="svg20"
   version="1.2"
   viewBox="0 0 42.519639 42.519639"
   height="14.999999mm"
   width="14.999999mm">
  <metadata
     id="metadata24">
    <rdf:RDF>
      <cc:Work
         rdf:about="">
        <dc:format>image/svg+xml</dc:format>
        <dc:type
           rdf:resource="http://purl.org/dc/dcmitype/StillImage" />
        <dc:title>Qt SVG Document</dc:title>
      </cc:Work>
    </rdf:RDF>
  </metadata>
  <sodipodi:namedview
     inkscape:current-layer="svg20"
     inkscape:window-maximized="0"
     inkscape:window-y="0"
     inkscape:window-x="0"
     inkscape:cy="28.346482"
     inkscape:cx="28.346482"
     inkscape:zoom="5.8410537"
     showgrid="false"
     id="namedview22"
     inkscape:window-height="480"
     inkscape:window-width="1034"
     inkscape:pageshadow="2"
     inkscape:pageopacity="0"
     guidetolerance="10"
     gridtolerance="10"
     objecttolerance="10"
     borderopacity="1"
     bordercolor="#666666"
     pagecolor="#ffffff" />
  <title
     id="title2">Qt SVG Document</title>
  <desc
     id="desc4">Generated with Qt</desc>
  <defs
     id="defs6" />
  <g
     transform="translate(5.25984,5.25984)"
     id="g18"
     stroke-linejoin="bevel"
     stroke-linecap="square"
     fill-rule="evenodd"
     stroke-width="1"
     stroke="#000000"
     fill="none">
    <g
       id="g10"
       font-style="normal"
       font-weight="400"
       font-size="7.8px"
       font-family="'MS Shell Dlg 2'"
       stroke="none"
       fill-opacity="1"
       fill="#6fa56c">
      <path
         id="path8"
         d="M 37.2598,16 C 37.2598,27.7415 27.7415,37.2598 16,37.2598 4.25851,37.2598 -5.25984,27.7415 -5.25984,16 -5.25984,4.25851 4.25851,-5.25984 16,-5.25984 27.7415,-5.25984 37.2598,4.25851 37.2598,16"
         fill-rule="evenodd"
         vector-effect="non-scaling-stroke" />
    </g>
    <g
       id="g14"
       font-style="normal"
       font-weight="400"
       font-size="7.8px"
       font-family="'MS Shell Dlg 2'"
       transform="translate(16,11.4646)"
       stroke="none"
       fill-opacity="0.94902"
       fill="#ffffff">
      <path
         id="path12"
         d="m 12.3579,-5.7373 c 0.3919,0.39192 0.3919,0.79085 0,1.19677 -0.7279,0.74186 -1.3507,1.38574 -1.8686,1.93164 -0.476,0.48991 -0.90287,0.93433 -1.2808,1.33326 C 8.83057,-0.876709 8.61361,-0.65625 8.55762,-0.614258 8.33366,-0.362305 8.16569,-0.159342 8.05371,-0.00537109 7.94173,0.1486 7.86125,0.292074 7.81226,0.425049 7.76326,0.558024 7.74577,0.694499 7.75977,0.834473 7.77376,0.974447 7.78076,1.14941 7.78076,1.35938 V 15.0278 c 0,0.322 -0.09098,0.5739 -0.27295,0.7559 -0.18196,0.182 -0.40592,0.2729 -0.67187,0.2729 -0.30795,0 -0.5564,-0.0909 -0.74536,-0.2729 C 5.90161,15.6017 5.80713,15.3498 5.80713,15.0278 V 7.1123 H 5.03027 v 7.9155 c 0,0.322 -0.09098,0.5739 -0.27295,0.7559 -0.18196,0.182 -0.40592,0.2729 -0.67187,0.2729 -0.25195,0 -0.48641,-0.0909 -0.70337,-0.2729 C 3.16512,15.6017 3.05664,15.3498 3.05664,15.0278 V 1.35938 c 0,-0.23796 0.007,-0.426926 0.021,-0.5669 0.01399,-0.139973 0,-0.283447 -0.042,-0.430419 C 2.99365,0.215088 2.89567,0.0506185 2.7417,-0.131348 2.58773,-0.313314 2.34977,-0.565267 2.02783,-0.887207 V -0.971191 C 1.6499,-1.33512 1.26147,-1.72705 0.862549,-2.14697 0.463623,-2.56689 0.0996908,-2.95532 -0.229248,-3.31226 -0.558187,-3.66919 -0.838135,-3.96313 -1.06909,-4.19409 -1.30005,-4.42505 -1.42952,-4.54053 -1.45752,-4.54053 -1.59749,-4.7085 -1.66748,-4.90796 -1.66748,-5.13892 c 0,-0.23095 0.06999,-0.43042 0.20996,-0.59838 0.40592,-0.32194 0.790853,-0.29395 1.154786,0.08398 l 1.259765,1.23877 c 0.335939,0.37793 0.713869,0.77336 1.133789,1.18628 0.41992,0.41292 0.79785,0.79435 1.13379,1.14429 0.46191,0.46191 1.00781,0.69287 1.63769,0.69287 h 1.21778 c 0.65788,0 1.16878,-0.23096 1.53271,-0.69287 0.37793,-0.34994 0.77336,-0.73137 1.18628,-1.14429 0.41293,-0.41292 0.79086,-0.79785 1.13379,-1.15479 0.34294,-0.35693 0.63684,-0.65787 0.88184,-0.90283 0.245,-0.24495 0.3814,-0.36743 0.4094,-0.36743 0.154,-0.16797 0.343,-0.25895 0.5669,-0.27295 0.224,-0.014 0.4129,0.04899 0.5669,0.18897 M 5.89111,-2 C 5.4152,-1.83203 4.97428,-1.85303 4.56836,-2.06299 4.16243,-2.27295 3.88949,-2.60889 3.74951,-3.0708 3.60954,-3.56071 3.65153,-4.00513 3.87549,-4.40405 4.09945,-4.80298 4.42839,-5.07943 4.8623,-5.2334 c 0.48991,-0.13997 0.94133,-0.09448 1.35425,0.13648 0.41293,0.23095 0.71037,0.56339 0.89234,0.99731 0.13997,0.47591 0.09448,0.90983 -0.13648,1.30176 C 6.74146,-2.40592 6.38102,-2.13997 5.89111,-2 m -7.85254,6.69775 c 0.30795,0.37793 0.66838,0.77686 1.081303,1.19678 0.412923,0.41992 0.7943523,0.81185 1.144287,1.17578 0.405925,0.43392 0.81885,0.85384 1.23877,1.25977 0.40592,0.39193 0.40592,0.79085 0,1.19678 C 1.33496,9.69482 1.139,9.77881 0.915039,9.77881 c -0.237956,0 -0.440918,-0.08399 -0.608887,-0.25195 0,-0.028 -0.108479,-0.15748 -0.3254391,-0.38843 C -0.236247,8.90747 -0.509196,8.62052 -0.838135,8.27759 -1.16707,7.93465 -1.52401,7.56372 -1.90894,7.16479 -2.29386,6.76587 -2.6613,6.37744 -3.01123,5.99951 v 4.55619 h 3.233398 c 0.167969,0 0.339437,0.056 0.514404,0.1679 0.174968,0.112 0.290448,0.259 0.346438,0.441 0.19596,0.4899 0.11198,0.8608 -0.251955,1.1127 l -4.178225,3.5274 c -0.22396,0.168 -0.46541,0.2379 -0.72436,0.2099 -0.25896,-0.0279 -0.47941,-0.1259 -0.66138,-0.2939 -0.16797,-0.238 -0.25195,-0.4829 -0.25195,-0.7349 0,-0.2519 0.11897,-0.4689 0.35693,-0.6508 l 2.1416,-1.8897 h -5.85791 l 2.24658,1.8897 c 0.16797,0.1819 0.26595,0.3989 0.29395,0.6508 0.02799,0.252 -0.04199,0.4969 -0.20996,0.7349 -0.08399,0.084 -0.19247,0.161 -0.32544,0.231 -0.13298,0.0699 -0.28345,0.1049 -0.45142,0.1049 -0.22396,0 -0.42692,-0.0839 -0.60888,-0.2519 l -4.28319,-3.5274 c -0.322,-0.2519 -0.4409,-0.6228 -0.357,-1.1127 0.21,-0.406 0.525,-0.6089 0.9449,-0.6089 h 3.35935 V 5.99951 c -0.33594,0.37793 -0.69987,0.76636 -1.0918,1.16528 -0.39193,0.39893 -0.75936,0.76986 -1.10229,1.1128 -0.34296,0.34293 -0.62286,0.62988 -0.83986,0.86084 -0.2169,0.23095 -0.3254,0.36043 -0.3254,0.38843 -0.168,0.16796 -0.364,0.25195 -0.5879,0.25195 -0.238,0 -0.4409,-0.08399 -0.6089,-0.25195 -0.168,-0.16797 -0.252,-0.36744 -0.252,-0.59839 0,-0.23096 0.084,-0.43042 0.252,-0.59839 l 1.2388,-1.25977 c 0.3499,-0.36393 0.7313,-0.75586 1.14425,-1.17578 0.41293,-0.41992 0.79435,-0.81885 1.14429,-1.19678 0.25195,-0.33593 0.56689,-0.59838 0.94482,-0.78735 0.37793,-0.18896 0.77686,-0.32544 1.19678,-0.40942 h 0.27295 1.97363 0.25196 c 0.43392,0.08398 0.83634,0.22046 1.20727,0.40942 0.37093,0.18897 0.68937,0.45142 0.95532,0.78735 M -4.90088,3.08105 C -5.39079,3.22103 -5.83521,3.17554 -6.23413,2.94458 -6.63306,2.71362 -6.90251,2.38118 -7.04248,1.94727 -7.21045,1.47135 -7.18945,1.02344 -6.97949,0.603516 c 0.20996,-0.419922 0.55989,-0.713868 1.0498,-0.881836 0.48991,-0.139974 0.93433,-0.097982 1.33325,0.125976 0.39893,0.2239586 0.67538,0.580892 0.82935,1.070801 0.13997,0.489913 0.09448,0.934323 -0.13647,1.333253 -0.23096,0.39892 -0.5634,0.67537 -0.99732,0.82934"
         fill-rule="evenodd"
         vector-effect="none" />
    </g>
    <g
       id="g16"
       font-style="normal"
       font-weight="400"
       font-size="7.8px"
       font-family="'MS Shell Dlg 2'"
       stroke="none"
       fill-opacity="1"
       fill="#6fa56c" />
  </g>
</svg>

<?xml version="1.0" encoding="UTF-8" standalone="no"?>
<svg width="11.2889mm" height="11.2889mm"
 viewBox="0 0 32 32"
 xmlns="http://www.w3.org/2000/svg" xmlns:xlink="http://www.w3.org/1999/xlink"  version="1.2" baseProfile="tiny">
<title>Qt SVG Document</title>
<desc>Generated with Qt</desc>
<defs>
</defs>
<g fill="none" stroke="black" stroke-width="1" fill-rule="evenodd" stroke-linecap="square" stroke-linejoin="bevel" >

<g fill="#6fa56c" fill-opacity="1" stroke="none" transform="matrix(1,0,0,1,0,0)"
font-family="MS Shell Dlg 2" font-size="7.8" font-weight="400" font-style="normal" 
>
<path vector-effect="non-scaling-stroke" fill-rule="evenodd" d="M37.2598,16 C37.2598,27.7415 27.7415,37.2598 16,37.2598 C4.25851,37.2598 -5.25984,27.7415 -5.25984,16 C-5.25984,4.25851 4.25851,-5.25984 16,-5.25984 C27.7415,-5.25984 37.2598,4.25851 37.2598,16 "/>
</g>

<g fill="#ffffff" fill-opacity="0.94902" stroke="none" transform="matrix(1,0,0,1,16,11.4646)"
font-family="MS Shell Dlg 2" font-size="7.8" font-weight="400" font-style="normal" 
>
<path vector-effect="none" fill-rule="evenodd" d="M12.3579,-5.7373 C12.7498,-5.34538 12.7498,-4.94645 12.3579,-4.54053 C11.63,-3.79867 11.0072,-3.15479 10.4893,-2.60889 C10.0133,-2.11898 9.58643,-1.67456 9.2085,-1.27563 C8.83057,-0.876709 8.61361,-0.65625 8.55762,-0.614258 C8.33366,-0.362305 8.16569,-0.159342 8.05371,-0.00537109 C7.94173,0.1486 7.86125,0.292074 7.81226,0.425049 C7.76326,0.558024 7.74577,0.694499 7.75977,0.834473 C7.77376,0.974447 7.78076,1.14941 7.78076,1.35938 L7.78076,15.0278 C7.78076,15.3498 7.68978,15.6017 7.50781,15.7837 C7.32585,15.9657 7.10189,16.0566 6.83594,16.0566 C6.52799,16.0566 6.27954,15.9657 6.09058,15.7837 C5.90161,15.6017 5.80713,15.3498 5.80713,15.0278 L5.80713,7.1123 L5.03027,7.1123 L5.03027,15.0278 C5.03027,15.3498 4.93929,15.6017 4.75732,15.7837 C4.57536,15.9657 4.3514,16.0566 4.08545,16.0566 C3.8335,16.0566 3.59904,15.9657 3.38208,15.7837 C3.16512,15.6017 3.05664,15.3498 3.05664,15.0278 L3.05664,1.35938 C3.05664,1.12142 3.06364,0.932454 3.07764,0.79248 C3.09163,0.652507 3.07764,0.509033 3.03564,0.362061 C2.99365,0.215088 2.89567,0.0506185 2.7417,-0.131348 C2.58773,-0.313314 2.34977,-0.565267 2.02783,-0.887207 L2.02783,-0.971191 C1.6499,-1.33512 1.26147,-1.72705 0.862549,-2.14697 C0.463623,-2.56689 0.0996908,-2.95532 -0.229248,-3.31226 C-0.558187,-3.66919 -0.838135,-3.96313 -1.06909,-4.19409 C-1.30005,-4.42505 -1.42952,-4.54053 -1.45752,-4.54053 C-1.59749,-4.7085 -1.66748,-4.90796 -1.66748,-5.13892 C-1.66748,-5.36987 -1.59749,-5.56934 -1.45752,-5.7373 C-1.0516,-6.05924 -0.666667,-6.03125 -0.302734,-5.65332 L0.957031,-4.41455 C1.29297,-4.03662 1.6709,-3.64119 2.09082,-3.22827 C2.51074,-2.81535 2.88867,-2.43392 3.22461,-2.08398 C3.68652,-1.62207 4.23242,-1.39111 4.8623,-1.39111 L6.08008,-1.39111 C6.73796,-1.39111 7.24886,-1.62207 7.61279,-2.08398 C7.99072,-2.43392 8.38615,-2.81535 8.79907,-3.22827 C9.212,-3.64119 9.58993,-4.02612 9.93286,-4.38306 C10.2758,-4.73999 10.5697,-5.04093 10.8147,-5.28589 C11.0597,-5.53084 11.1961,-5.65332 11.2241,-5.65332 C11.3781,-5.82129 11.5671,-5.91227 11.791,-5.92627 C12.015,-5.94027 12.2039,-5.87728 12.3579,-5.7373 M5.89111,-2 C5.4152,-1.83203 4.97428,-1.85303 4.56836,-2.06299 C4.16243,-2.27295 3.88949,-2.60889 3.74951,-3.0708 C3.60954,-3.56071 3.65153,-4.00513 3.87549,-4.40405 C4.09945,-4.80298 4.42839,-5.07943 4.8623,-5.2334 C5.35221,-5.37337 5.80363,-5.32788 6.21655,-5.09692 C6.62948,-4.86597 6.92692,-4.53353 7.10889,-4.09961 C7.24886,-3.6237 7.20337,-3.18978 6.97241,-2.79785 C6.74146,-2.40592 6.38102,-2.13997 5.89111,-2 M-1.96143,4.69775 C-1.65348,5.07568 -1.29305,5.47461 -0.880127,5.89453 C-0.467204,6.31445 -0.0857747,6.70638 0.26416,7.07031 C0.670085,7.50423 1.08301,7.92415 1.50293,8.33008 C1.90885,8.72201 1.90885,9.12093 1.50293,9.52686 C1.33496,9.69482 1.139,9.77881 0.915039,9.77881 C0.677083,9.77881 0.474121,9.69482 0.306152,9.52686 C0.306152,9.49886 0.197673,9.36938 -0.0192871,9.13843 C-0.236247,8.90747 -0.509196,8.62052 -0.838135,8.27759 C-1.16707,7.93465 -1.52401,7.56372 -1.90894,7.16479 C-2.29386,6.76587 -2.6613,6.37744 -3.01123,5.99951 L-3.01123,10.5557 L0.222168,10.5557 C0.390137,10.5557 0.561605,10.6117 0.736572,10.7236 C0.91154,10.8356 1.02702,10.9826 1.08301,11.1646 C1.27897,11.6545 1.19499,12.0254 0.831055,12.2773 L-3.34717,15.8047 C-3.57113,15.9727 -3.81258,16.0426 -4.07153,16.0146 C-4.33049,15.9867 -4.55094,15.8887 -4.73291,15.7207 C-4.90088,15.4827 -4.98486,15.2378 -4.98486,14.9858 C-4.98486,14.7339 -4.86589,14.5169 -4.62793,14.335 L-2.48633,12.4453 L-8.34424,12.4453 L-6.09766,14.335 C-5.92969,14.5169 -5.83171,14.7339 -5.80371,14.9858 C-5.77572,15.2378 -5.8457,15.4827 -6.01367,15.7207 C-6.09766,15.8047 -6.20614,15.8817 -6.33911,15.9517 C-6.47209,16.0216 -6.62256,16.0566 -6.79053,16.0566 C-7.01449,16.0566 -7.21745,15.9727 -7.39941,15.8047 L-11.6826,12.2773 C-12.0046,12.0254 -12.1235,11.6545 -12.0396,11.1646 C-11.8296,10.7586 -11.5146,10.5557 -11.0947,10.5557 L-7.73535,10.5557 L-7.73535,5.99951 C-8.07129,6.37744 -8.43522,6.76587 -8.82715,7.16479 C-9.21908,7.56372 -9.58651,7.93465 -9.92944,8.27759 C-10.2724,8.62052 -10.5523,8.90747 -10.7693,9.13843 C-10.9862,9.36938 -11.0947,9.49886 -11.0947,9.52686 C-11.2627,9.69482 -11.4587,9.77881 -11.6826,9.77881 C-11.9206,9.77881 -12.1235,9.69482 -12.2915,9.52686 C-12.4595,9.35889 -12.5435,9.15942 -12.5435,8.92847 C-12.5435,8.69751 -12.4595,8.49805 -12.2915,8.33008 L-11.0527,7.07031 C-10.7028,6.70638 -10.3214,6.31445 -9.90845,5.89453 C-9.49552,5.47461 -9.1141,5.07568 -8.76416,4.69775 C-8.51221,4.36182 -8.19727,4.09937 -7.81934,3.9104 C-7.44141,3.72144 -7.04248,3.58496 -6.62256,3.50098 L-6.34961,3.50098 L-4.37598,3.50098 L-4.12402,3.50098 C-3.6901,3.58496 -3.28768,3.72144 -2.91675,3.9104 C-2.54582,4.09937 -2.22738,4.36182 -1.96143,4.69775 M-4.90088,3.08105 C-5.39079,3.22103 -5.83521,3.17554 -6.23413,2.94458 C-6.63306,2.71362 -6.90251,2.38118 -7.04248,1.94727 C-7.21045,1.47135 -7.18945,1.02344 -6.97949,0.603516 C-6.76953,0.183594 -6.4196,-0.110352 -5.92969,-0.27832 C-5.43978,-0.418294 -4.99536,-0.376302 -4.59644,-0.152344 C-4.19751,0.0716146 -3.92106,0.428548 -3.76709,0.918457 C-3.62712,1.40837 -3.67261,1.85278 -3.90356,2.25171 C-4.13452,2.65063 -4.46696,2.92708 -4.90088,3.08105 "/>
</g>

<g fill="#6fa56c" fill-opacity="1" stroke="none" transform="matrix(1,0,0,1,0,0)"
font-family="MS Shell Dlg 2" font-size="7.8" font-weight="400" font-style="normal" 
>
</g>
</g>
</svg>
